source/img/icons/return.svg

<svg width="18" height="18" viewBox="0 0 18 18" fill="none" xmlns="http://www.w3.org/2000/svg">
<g clip-path="url(#clip0_836_1528)">
<path d="M0.891358 8.89958C0.890779 7.24291 1.40393 5.62679 2.36005 4.27387C3.31618 2.92095 4.66826 1.89778 6.2301 1.34528C7.79193 0.79278 9.48663 0.738162 11.0808 1.18891C12.675 1.63966 14.0902 2.57361 15.1315 3.86214" stroke="black" stroke-width="0.712005" stroke-linecap="round" stroke-linejoin="round"/>
<path d="M15.5764 0.890625V4.45065H12.0164" stroke="black" stroke-width="0.712005" stroke-linecap="round" stroke-linejoin="round"/>
<path d="M16.9103 8.90039C16.9109 10.5571 16.3978 12.1732 15.4416 13.5261C14.4855 14.879 13.1334 15.9022 11.5716 16.4547C10.0098 17.0072 8.315 17.0618 6.72083 16.6111C5.12665 16.1603 3.71145 15.2264 2.67017 13.9378" stroke="black" stroke-width="0.712005" stroke-linecap="round" stroke-linejoin="round"/>
<path d="M2.22583 16.9096V13.3496H5.78586" stroke="black" stroke-width="0.712005" stroke-linecap="round" stroke-linejoin="round"/>
<path d="M6.23077 7.43164H11.5708V10.7692C11.5708 10.9462 11.5005 11.116 11.3753 11.2412C11.2501 11.3664 11.0803 11.4367 10.9033 11.4367H6.89828C6.81029 11.4379 6.72297 11.4214 6.64145 11.3883C6.55992 11.3552 6.48584 11.3061 6.42362 11.2438C6.36139 11.1816 6.3123 11.1075 6.27917 11.026C6.24605 10.9445 6.22958 10.8572 6.23077 10.7692V7.43164Z" stroke="black" stroke-width="0.712005" stroke-linecap="round" stroke-linejoin="round"/>
<path d="M7.56572 6.06055H10.2357L11.5708 7.39556H6.23071L7.56572 6.06055Z" stroke="black" stroke-width="0.712005" stroke-linecap="round" stroke-linejoin="round"/>
</g>
<defs>
<clipPath id="clip0_836_1528">
<rect width="17.8001" height="17.8001" fill="white"/>
</clipPath>
</defs>
</svg>

<svg width="18" height="18" fill="none" xmlns="http://www.w3.org/2000/svg"><g clip-path="url(#clip0_836_1528)" stroke="#000" stroke-width=".712" stroke-linecap="round" stroke-linejoin="round"><path d="M.891 8.9a8.01 8.01 0 0114.24-5.038M15.576.89v3.56h-3.56M16.91 8.9a8.01 8.01 0 01-14.24 5.038"/><path d="M2.226 16.91v-3.56h3.56m.444-5.918h5.34v3.337a.668.668 0 01-.667.668H6.898a.659.659 0 01-.667-.668V7.432zM7.566 6.06h2.67l1.335 1.336H6.23L7.566 6.06z"/></g><defs><clipPath id="clip0_836_1528"><path fill="#fff" d="M0 0h17.8v17.8H0z"/></clipPath></defs></svg>
